X:16
T:Rural Felicity. JClw.16
T:Haste to the Wedding,aka. JClw.16
M:6/8
L:1/8
Q:3/8=120
S:J.Clews MS,Stoke-upon-Tern,Shrops.1832
A:N. Shropshire
Z:Neil Brookes 2006
K:D
A|AFG Aaf|ede fdB|AFA BdF|EEE E2z|!
AFG Aaf|ede fdB|AFA faf|dddd2:|!
|:a|afa afa|bgb bgb|afa agf|eeee3|!
a3f3|ede fdB|AFA faf|dddd2:|

